X: 46
T: JIG: Humours of Killarney
T: Sheehan's / Cheer up Old Hag
C: C: Trad.; S: ThZCh; Paudie O'Connor & John O'Brien
C: Set Leaders: Oliushka, Anton
Z: Anton Zille ed.; Nigel Gatherer at The Session
N: https://thesession.org/members/26966/sets/71901
R: Jig
M: 6/8
L: 1/8
Q: 3/8=116
K: Gmaj
|:BGG G2 B|ded d2c|BAB GBd|e2f g2D|
GBd gfe|fdB cBA|BGE EDE|c3 B2A:||
|:BGE EDE|GED D2A|BGE EDE|c2d edc|
BGE EDE|GED DEF|G/A/BA GBA|G3 G2A:||

